src/assets/icons/smallAnimal/cat.svg

<svg width="28" height="28" viewBox="0 0 28 28" fill="none" xmlns="http://www.w3.org/2000/svg">
<path d="M21.929 13.6285C21.95 13.6472 21.9714 13.6655 21.9924 13.6837H21.9912C21.9966 13.8074 22 13.9314 22 14.0563C22 15.0652 21.8173 16.0307 21.4833 16.9215C21.4119 17.1119 21.3334 17.2988 21.2485 17.4819C20.9457 18.136 20.5596 18.7427 20.1026 19.2872C19.0533 20.5383 17.6348 21.4618 16.0171 21.887C11 23 7.02325 18.325 6.30538 16.2763C6.1067 15.5707 6 14.8256 6 14.055C6 11.7998 6.9132 9.76031 8.38509 8.29306C8.40861 8.27012 8.43172 8.24633 8.45524 8.22339L8.50228 8.17879C8.79464 7.89927 9.10717 7.64184 9.43817 7.40905C10.3669 6.75571 11.4385 6.29608 12.5966 6.08878C12.6604 6.07264 12.7243 6.05692 12.789 6.04205C12.836 6.02761 12.8835 6.01317 12.9314 6L12.9242 6.01232C12.9188 6.02166 12.9137 6.03101 12.9087 6.03993C12.7823 6.25998 12.6718 6.49107 12.5789 6.73108C12.5243 6.87296 12.4756 7.01781 12.4332 7.16522C12.3244 7.54499 12.258 7.94345 12.2408 8.35423H12.2542C12.6978 7.90819 13.1931 7.51483 13.7295 7.18306C14.7977 6.5225 16.0306 6.10875 17.3516 6.01912C17.3915 6.01657 17.431 6.01359 17.4709 6.01147C17.4793 6.01104 17.4882 6.0102 17.4966 6.0102L17.4949 6.01402L17.4596 6.09091C17.2449 6.55521 17.0727 7.04373 16.9475 7.55136C16.9081 7.71066 16.8732 7.87166 16.8434 8.03478C16.8245 8.21192 16.8148 8.39161 16.8148 8.57342C16.8148 9.00927 16.8698 9.43236 16.9723 9.83592C17.0278 10.0534 17.0971 10.2654 17.1794 10.4706C17.3327 10.8533 17.5306 11.2127 17.7671 11.5419C18.0842 11.9833 18.4703 12.3711 18.9092 12.6889C19.1045 12.8303 19.3108 12.9582 19.5259 13.0703C19.6859 13.154 19.8514 13.2279 20.0211 13.2938C20.1123 13.329 20.2038 13.3626 20.2975 13.3928C20.7764 13.547 21.2863 13.6306 21.8156 13.6306C21.8534 13.6306 21.8912 13.6294 21.929 13.6285Z" stroke="#323232" stroke-width="2.3" stroke-linecap="round" stroke-linejoin="round"/>
</svg>

<?xml version="1.0" encoding="utf-8"?>
<!-- Generator: Adobe Illustrator 26.1.0, SVG Export Plug-In . SVG Version: 6.00 Build 0)  -->
<svg version="1.1" id="Layer_1" xmlns="http://www.w3.org/2000/svg" xmlns:xlink="http://www.w3.org/1999/xlink" x="0px" y="0px"
	 viewBox="0 0 28 28" style="enable-background:new 0 0 28 28;" xml:space="preserve">
<style type="text/css">
	.st0{fill:none;stroke:#000000;stroke-width:2.3;stroke-linecap:round;stroke-linejoin:round;}
</style>
<path class="st0" d="M21.93,13.63c0.02,0.02,0.04,0.04,0.06,0.06h0C22,13.81,22,13.93,22,14.06c0,1.01-0.18,1.97-0.52,2.87
	c-0.07,0.19-0.15,0.38-0.23,0.56c-0.3,0.65-0.69,1.26-1.15,1.81c-1.05,1.25-2.47,2.17-4.09,2.6C11,23,7.02,18.33,6.31,16.28
	C6.11,15.57,6,14.83,6,14.06c0-2.26,0.91-4.3,2.39-5.76c0.02-0.02,0.05-0.05,0.07-0.07C8.47,8.21,8.49,8.19,8.5,8.18
	C8.8,7.9,9.12,7.51,9.44,7.26C10.99,6.04,10.9,6,12.11,5.47c0.06-0.02,0.23,0.02,0.29,0c0.05-0.01,0.18,0.08,0.23,0.07l-0.01,0.01
	c-0.01,0.01-0.01,0.02-0.02,0.03c-0.13,0.22-0.09,0.86-0.18,1.1c-0.05,0.14,0.05,0.33,0.01,0.48c-0.11,0.38-0.18,0.78-0.19,1.19
	h0.01c0.44-0.45,0.94-0.84,1.48-1.17c1.07-0.66,2.3-1.07,3.62-1.16c0.04,0,0.08-0.01,0.12-0.01c0.01,0,0.02,0,0.03,0l0,0l-0.04,0.08
	c-0.21,0.46-0.39,0.95-0.51,1.46c-0.04,0.16-0.07,0.32-0.1,0.48c-0.02,0.18-0.03,0.36-0.03,0.54c0,0.44,0.06,0.86,0.16,1.26
	c0.06,0.22,0.12,0.43,0.21,0.63c0.15,0.38,0.35,0.74,0.59,1.07c0.32,0.44,0.7,0.83,1.14,1.15c0.2,0.14,0.4,0.27,0.62,0.38
	c0.16,0.08,0.33,0.16,0.5,0.22c0.09,0.04,0.18,0.07,0.28,0.1c0.48,0.15,0.99,0.24,1.52,0.24C21.85,13.63,21.89,13.63,21.93,13.63z"
	/>
</svg>
